X: 3421
T: LOGAN WATER
Q: "Moderato."
%R: march
B: James Kerr "Merry Melodies" v.3 p.47 #421
Z: 2016 John Chambers <jc:trillian.mit.edu>
M: C
L: 1/8
K: Bm
fe |\
d2B2 B2(dB) | ABdB A2(fe) | d2B2 BdAB | dcde f2(ef) |\
g2fe f2ed | edcB A2(dc) | Bcde faef | d2B2B2 :|
|: (fa) |\
f2B2 B2(dB) | ABdB A2(fa) | f2B2 BdAB | dcde f2(ef) |\
g2fe f2ed | edcB A2(dc) | Bcde faef | d2B2B2 :|

%%sep 1 1 500
%%sep 1 1 500

